src/components/Icon/utils/svgsOptimized/align-center.svg

<?xml version="1.0" encoding="utf-8"?><svg width="24" height="24" xmlns="http://www.w3.org/2000/svg" viewBox="0 0 24 24"><path d="M17 9h-4.5V7c0-.28-.22-.5-.5-.5s-.5.22-.5.5v2H7c-.55 0-1 .45-1 1v4c0 .55.45 1 1 1h4.5v2c0 .28.22.5.5.5s.5-.22.5-.5v-2H17c.55 0 1-.45 1-1v-4c0-.55-.45-1-1-1Zm-9.9 4.9v-3.8h9.8v3.8H7.1Z"/></svg>

<svg width="24" height="24" viewBox="0 0 24 24"  xmlns="http://www.w3.org/2000/svg">
<path d="M17 9H12.5V7C12.5 6.72 12.28 6.5 12 6.5C11.72 6.5 11.5 6.72 11.5 7V9H7C6.45 9 6 9.45 6 10V14C6 14.55 6.45 15 7 15H11.5V17C11.5 17.28 11.72 17.5 12 17.5C12.28 17.5 12.5 17.28 12.5 17V15H17C17.55 15 18 14.55 18 14V10C18 9.45 17.55 9 17 9ZM7.1 13.9V10.1H16.9V13.9H7.1Z" />
</svg>
